X:187
T:Margaret's Waltz
M:3/4
L:1/8
R:waltz
C:Pat Shaw
K:A
AF|E3 F AB|c4 Ac|BA F2 Ac|B4 AF|E3 F AB|c2 e2 (3cBA|c4 B2|A4:|
cd|e2 f2 g2|a2 g2 a2|fe d2 f2|e4 cB|A3 B cd|e4 ce|fe d2 c2|B4 cd|
eA fA gA|aA gA fA|eA dA (3cBA|B4 AF|E3 F AB|c2 e2 (3cBA|c4 B2|A4||
